packages/core/src/svgs/tokens/branded/TNT.svg

<svg width="24" height="24" viewBox="0 0 24 24" fill="none" xmlns="http://www.w3.org/2000/svg">
<path d="M16.3749 14.3615C13.4624 14.1458 10.5377 14.1458 7.62498 14.3615L7.33123 10.4864C10.4375 10.2553 13.5625 10.2553 16.6688 10.4864L16.3749 14.3615ZM13.8749 20.4364C12.6261 20.3605 11.3739 20.3605 10.125 20.4364C10.0875 19.1114 10.0249 18.6364 9.98745 17.3114C11.5875 17.2302 12.3874 17.2364 13.9875 17.3114L13.8749 20.4364ZM2 4.43024L2.64375 8.96143C3.01875 8.29891 3.20624 7.96149 3.59375 7.31149C9.23407 6.46939 14.969 6.47992 20.6061 7.34273C20.9187 7.98648 21.0624 8.31146 21.3561 8.96143C21.6063 7.14899 21.7375 6.24274 22 4.43024C15.3834 3.27468 8.61657 3.27468 2 4.43024Z" fill="#F94081"/>
</svg>

<svg xmlns="http://www.w3.org/2000/svg" width="24" height="24" fill="none" viewBox="0 0 24 24">
    <path fill="#F94081" d="M16.375 14.362a59 59 0 0 0-8.75 0l-.294-3.876a63 63 0 0 1 9.338 0zm-2.5 6.074a31 31 0 0 0-3.75 0c-.037-1.325-.1-1.8-.138-3.125 1.6-.08 2.4-.075 4 0zM2 4.43l.644 4.531c.375-.662.562-1 .95-1.65a56.9 56.9 0 0 1 17.012.032c.313.643.456.968.75 1.618.25-1.812.381-2.718.644-4.53a58.1 58.1 0 0 0-20 0"/>
</svg>
